X:1452
T:Still, still, still
C:anon.
O:Germany
A:Salzburg
R:Lullaby
Z:Transcribed by Frank Nordberg - http://www.musicaviva.com
F:http://abc.musicaviva.com/tunes/germany/still-still-still.abc
M:2/4
L:1/4
Q:1/4=84
K:C
"C"(Gc)|"C"(EG)|"C"CC/E/|"G7"D D/F/|"G7"B, B,/D/|
w:Still,_ still,_ still, weils_ Kind-lein_ scla-fen_
"C"C2|"C"z C|"G"DD/E/|"G7"FD|"C"EE/F/|
w:will. Die Eng-lein_ tun sch\"on ju-bi--
"C"GE|"D"DD/E/|"G7"FD|"C"EE/F/|"C"GE|
w:lie-ren, bei dem_ Kripp-lein mu-si--zie-ren.
"C"(Gc)|"C"(EG)|"C"CC/E/|"G7"D D/F/|"G7"B, B,/D/|"C"C2|]
w:Still,_ still,_ till, weils_ Kind-lein_ scla-fen_ will.
W:
W:Still, still, still,
W:weils Kindlein sclafen will.
W:Die Englein tun sch\"on jubilieren,
W:bei dem Kripplein musizieren.
W:Still, still, till,
W:weils Kindlein sclafen will.
W:
W:
W:  From Musica Viva - http://www.musicaviva.com
W:  the Internet center for free sheet music downloads.


